!!!COM: Palestrina, Giovanni Perluigi da
!!!OPR: O sacrum convivium
!!!OTL: Credo
**kern	**kern	**kern	**kern	**kern
*Ibass	*Itenor	*Itenor	*Icalto	*Icant
!Bassus	!Tenor 2	!Tenor 1	!Altus	!Cantus
*clefF4	*clefGv2	*clefGv2	*clefG2	*clefG2
*k[b-]	*k[b-]	*k[b-]	*k[b-]	*k[b-]
*F:ion	*F:ion	*F:ion	*F:ion	*F:ion
*M4/2	*M4/2	*M4/2	*M4/2	*M4/2
=1	=1	=1	=1	=1
0r	1F	1c	0f	1a
.	[1B-	[1d	.	[1b-
=2	=2	=2	=2	=2
0r	2B-]	2d]	1f	2b-]
.	2A	2c	.	2cc
.	2B-	2B-	1f	2dd
.	2c	2A	.	2cc
=3	=3	=3	=3	=3
0r	4d	4B-	1f	1b-
.	4c	4c	.	.
.	4B-	4d	.	.
.	4c	4e	.	.
.	4d	4f	1f	2.a
.	4e	4e	.	.
.	[2f	2d	.	.
.	.	.	.	4b-
=4	=4	=4	=4	=4
1r	2f]	1.c	0g	[0cc
.	4e	.	.	.
.	4d	.	.	.
1C	1e	.	.	.
.	.	2c	.	.
=5	=5	=5	=5	=5
1.F	2.f	2A	1.a	0cc]
.	.	4F	.	.
.	4e	4G	.	.
.	4c	4A	.	.
.	4d	4B-	.	.
2E	2e	[2c	2g	.
=6	=6	=6	=6	=6
2F	1d	2c]	2a	1r
2G	.	2B	4g	.
.	.	.	4f	.
4A	1c	[1c	2e	2r
4G	.	.	.	.
4F	.	.	2f	2cc
4G	.	.	.	.
=7	=7	=7	=7	=7
4A	1r	1c]	2f	2cc
4B-	.	.	.	.
1c	.	.	2e	2cc
.	2r	1r	1d	[1ff
2B-	2f	.	.	.
=8	=8	=8	=8	=8
1c	2a	2r	1c	2ff]
.	4g	2c	.	4ee
.	4f	.	.	4dd
2r	2g	2c	1r	2ee
2F	2a	2c	.	2ff
=9	=9	=9	=9	=9
2F	1a	1f	0r	1cc
2F	.	.	.	.
1B-	2f	2d	.	1dd
.	2d	[2f	.	.
=10	=10	=10	=10	=10
1A	2.a	4f]	2r	1cc
.	.	4e	.	.
.	.	2c	2f	.
.	4g	.	.	.
1B-	4f	4d	2f	1r
.	4e	4e	.	.
.	4d	[2f	2f	.
.	4c	.	.	.
=11	=11	=11	=11	=11
1G	1B-	2f]	1b-	1r
.	.	2e	.	.
1F	1c	2.f	1a	2r
.	.	.	.	2cc
.	.	4e	.	.
=12	=12	=12	=12	=12
0r	1r	4d	1b-	2dd
.	.	4c	.	.
.	.	2B-	.	1ff
.	2r	1c	2.g	.
.	[2c	.	.	4ee
.	.	.	4f	4dd
=13	=13	=13	=13	=13
0r	2c]	2r	2g	2ee
.	2c	1F	2a	2ff
.	2.f	.	1a	1cc
.	.	2F	.	.
.	4f	.	.	.
=14	=14	=14	=14	=14
0r	4d	1B-	2r	1dd
.	4e	.	.	.
.	4f	.	1f	.
.	4g	.	.	.
.	2a	2A	.	2cc
.	[2f	2B-	2f	[2dd
=15	=15	=15	=15	=15
0r	4f]	2G	1b-	2dd]
.	4e	.	.	.
.	4e	2G	.	4cc
.	4d	.	.	4b-
.	2f	2F	2a	2cc
.	2B-	[2f	2b-	2dd
=16	=16	=16	=16	=16
1.C	[0c	2f]	2.g	1cc
.	.	4e	.	.
.	.	4d	4g	.
.	.	1e	2g	2r
2C	.	.	2g	[2cc
=17	=17	=17	=17	=17
2.F	0c]	2f	2a	2cc]
.	.	2.c	2f	2a
4F	.	.	.	.
2E	.	.	2g	2g
.	.	4B-	.	.
2F	.	4A	[2a	2f
.	.	4G	.	.
=18	=18	=18	=18	=18
1D	0r	2F	4a]	2a
.	.	.	4g	.
.	.	2F	1f	2b-
1C	.	2G	.	2.cc
.	.	2G	2e	.
.	.	.	.	4b-
=19	=19	=19	=19	=19
2r	1c	2F	0f	0a
1F	.	1A	.	.
.	2c	.	.	.
2F	2d	2A	.	.
=20	=20	=20	=20	=20
2G	2d	2B	0r	1r
2G	2e	2B	.	.
2A	2e	2c	.	2r
2A	[2c	2c	.	[2cc
=21	=21	=21	=21	=21
1F	2c]	1A	1.f	2cc]
.	2f	.	.	2cc
2.B-	2d	2r	.	2dd
.	[2f	[2d	2f	2dd
4A	.	.	.	.
=22	=22	=22	=22	=22
1G	4f]	4d]	2g	2b-
.	4e	4c	.	.
.	4e	2B-	2g	2b-
.	4d	.	.	.
[1F	1f	2A	2.a	2cc
.	.	[2f	.	[2cc
.	.	.	4a	.
=23	=23	=23	=23	=23
2F]	1d	4f]	2a	2cc]
.	.	4e	.	.
2G	.	2.d	2g	1b-
2A	1r	.	2e	.
.	.	4c	.	.
2F	.	4c	2f	[2a
.	.	8B-	.	.
.	.	8A	.	.
=24	=24	=24	=24	=24
0G	2r	0B-	1d	2a]
.	2.d	.	.	4g
.	.	.	.	4f
.	.	.	2r	1g
.	4d	.	.	.
.	2d	.	[2d	.
=25	=25	=25	=25	=25
2D	2.f	1A	4d]	1a
.	.	.	4d	.
2.D	.	.	2d	.
.	4g	.	.	.
.	1a	2r	2.f	1r
4D	.	.	.	.
2D	.	[2A	.	.
.	.	.	4g	.
=26	=26	=26	=26	=26
2.F	1f	4A]	1.a	0r
.	.	4A	.	.
.	.	2A	.	.
4G	.	.	.	.
2A	2e	2c	.	.
2B-	2d	2d	2g	.
=27	=27	=27	=27	=27
2A	2c	2e	1.a	0r
2F	2.d	2f	.	.
2A	.	2e	.	.
.	4c	.	.	.
2A	[2c	2c	2f	.
=28	=28	=28	=28	=28
1G	2c]	1d	2g	2r
.	2B	.	2g	1g
1C	2.c	2r	2e	.
.	.	2c	2e	2g
.	4B-	.	.	.
=29	=29	=29	=29	=29
0r	4A	2c	2e	0cc
.	4G	.	.	.
.	2F	1f	1a	.
.	1c	.	.	.
.	.	2e	2g	.
=30	=30	=30	=30	=30
1r	2r	1d	2f	1b
.	1G	.	2.g	.
[1C	.	2.e	.	1cc
.	.	.	4f	.
.	2G	.	4e	.
.	.	4f	4d	.
=31	=31	=31	=31	=31
2C]	1.c	1g	2e	0cc
2C	.	.	2e	.
1F	.	2r	1f	.
.	2A	[2c	.	.
=32	=32	=32	=32	=32
1E	2G	4c]	2.g	2r
.	.	4c	.	.
.	4c	2c	.	1cc
.	4B-	.	4g	.
1F	4A	2c	1a	.
.	4F	.	.	.
.	[2c	2c	.	2cc
=33	=33	=33	=33	=33
2D	2c]	2d	2f	1ff
2D	2B	2d	2d	.
2C	1c	1e	[1g	2ee
2c	.	.	.	2ee
=34	=34	=34	=34	=34
2B	2r	1r	1g]	2dd
2c	1g	.	.	2ee
1A	.	2r	2r	1cc
.	2f#	2c	2cc	.
=35	=35	=35	=35	=35
2G	1g	2d	2b	0r
2C	.	2e	2cc	.
1F	1c	1f	1a	.
=36	=36	=36	=36	=36
1C	1c	1e	1g	2r
.	.	.	.	1cc
1r	1d	1f	2r	.
.	.	.	2f	2b
=37	=37	=37	=37	=37
0r	2c	2e	2g	2cc
.	2B-	2f	2.b-	1dd
.	2B-	2d	.	.
.	.	.	4a	.
.	2c	2e	[2g	[2cc
=38	=38	=38	=38	=38
0r	1d	1f	2g]	2cc]
.	.	.	1f	2b
.	1c	1g	.	[1cc
.	.	.	4e	.
.	.	.	4d	.
=39	=39	=39	=39	=39
2r	2r	1c	2e	0cc]
1F	1A	.	2f	.
.	.	2r	1c	.
2E	2G	[2c	.	.
=40	=40	=40	=40	=40
2F	2A	2c]	1r	0r
2D	2F	2B	.	.
2C	2G	2c	2r	.
[2BB-	[2B-	[2d	[2f	.
=41	=41	=41	=41	=41
2BB-]	4B-]	2d]	2f]	0r
.	4A	.	.	.
2C	2G	2c	2e	.
1D	2F	2A	2f	.
.	[2f	2B	2d	.
=42	=42	=42	=42	=42
1C	2f]	1c	1g	2r
.	2e	.	.	1cc
1r	2f	2F	2a	.
.	2d	2f	2f	2b
=43	=43	=43	=43	=43
0r	2c	2e	4g	2cc
.	.	.	4a	.
.	1B-	2f	1b-	1dd
.	.	2d	.	.
.	2c	2e	[2a	2cc
=44	=44	=44	=44	=44
1r	1d	1f	2a]	2a
.	.	.	4g	2b
.	.	.	4f	.
2r	1c	2r	1e	1cc
[2c	.	[2g	.	.
=45	=45	=45	=45	=45
2c]	2r	2g]	1d	1dd
2B	1g	2d	.	.
2c	.	2e	2r	1cc
2A	2c	2f	[2c	.
=46	=46	=46	=46	=46
1G	2d	1g	2c]	1r
.	2e	.	2B	.
1F	2.f	2.a	1c	2r
.	.	.	.	[2cc
.	4g	4g	.	.
=47	=47	=47	=47	=47
0r	4a	2f	0r	2cc]
.	4f	.	.	.
.	2.g	2e	.	2g
.	.	1d	.	2a
.	4f	.	.	.
.	[2f	.	.	2b
=48	=48	=48	=48	=48
2r	2f]	1c	1.g	1cc
1c	4e	.	.	.
.	4d	.	.	.
.	2.e	1r	.	1cc
2A	.	.	2c	.
.	4f	.	.	.
=49	=49	=49	=49	=49
2B-	1g	0r	2d	1r
2c	.	.	2e	.
2.F	1a	.	[1f	2r
.	.	.	.	[2cc
4G	.	.	.	.
=50	=50	=50	=50	=50
4A	0r	1r	2f]	2cc]
4B-	.	.	.	.
1c	.	.	2e	2g
.	.	2r	1d	2a
2B-	.	[2f	.	2b-
=51	=51	=51	=51	=51
1A	0r	2f]	4c	1.cc
.	.	.	4d	.
.	.	2c	4e	.
.	.	.	4f	.
1G	.	2d	1g	.
.	.	2e	.	2b-
=52	=52	=52	=52	=52
1F	2r	2.f	1c	2.a
.	1f	.	.	.
.	.	4e	.	8g
.	.	.	.	8a
1r	.	2d	1r	4b-
.	.	.	.	4a
.	2c	2A	.	[2a
=53	=53	=53	=53	=53
1r	2d	2B-	2r	2a]
.	2e	2c	1cc	2g
2r	[1f	1F	.	[1a
[2F	.	.	2c	.
=54	=54	=54	=54	=54
2F]	2f]	2r	2d	1a]
2C	2e	2c	2e	.
2D	2d	2F	2f	2r
2E	2c	2G	4e	[2cc
.	.	.	4d	.
=55	=55	=55	=55	=55
2F	2r	2A	4c	2cc]
.	.	.	4A	.
1F	2c	2A	1a	2f
.	2F	1c	.	2a
2E	2G	.	[2g	2cc
=56	=56	=56	=56	=56
1D	2A	1F	2g]	1dd
.	2B-	.	2.f	.
1C	2c	1G	.	2g
.	.	.	8e	.
.	.	.	8d	.
.	2c	.	2e	2cc
=57	=57	=57	=57	=57
1r	2c	1F	1f	0a
.	1c	.	.	.
1F	.	1A	2r	.
.	[2d	.	2f	.
=58	=58	=58	=58	=58
1G	2d]	1B-	2d	0r
.	2B-	.	2e	.
2F	4c	2A	1f	.
.	8B-	.	.	.
.	8c	.	.	.
2D	2d	2B-	.	.
=59	=59	=59	=59	=59
2E	2c	2G	2g	2r
2F	2c	2A	2f	2cc
1BB-	1B-	2B-	2f	[1dd
.	.	2f	2d	.
=60	=60	=60	=60	=60
0r	0r	1g	1b-	2dd]
.	.	.	.	2b-
.	.	2f	2a	2cc
.	.	2d	2f	2dd
=61	=61	=61	=61	=61
0r	1r	2e	2g	1cc
.	.	2f	1a	.
.	2r	1d	.	1dd
.	2f	.	2b	.
=62	=62	=62	=62	=62
2r	1g	1c	2cc	2ee
2c	.	.	2cc	2ee
1d	2f	1r	2a	1ff
.	2d	.	2f	.
=63	=63	=63	=63	=63
2c	2e	1r	2g	2ee
2A	1f	.	2a	2cc
2B-	.	2r	1g	2dd
2c	2e	2g	.	[2cc
=64	=64	=64	=64	=64
1F	2f	1.a	2r	4cc]
.	.	.	.	4b-
.	2c	.	1f	4a
.	.	.	.	4g
1r	1d	.	.	1f
.	.	2f	2d	.
=65	=65	=65	=65	=65
0r	2c	2g	2e	1cc
.	2A	1f	2a	.
.	2B-	.	1g	2dd
.	2c	2e	.	2cc
=66	=66	=66	=66	=66
0r	1F	1f	1a	1cc
.	1r	1r	1r	1r
=67	=67	=67	=67	=67
0F	0A	0c	0f	0cc
=68	=68	=68	=68	=68
1BB-	1B-	1f	1d	1dd
1BB-	1B-	1d	1f	1dd
=69	=69	=69	=69	=69
1F	1A	1c	1f	1ff
1C	2G	1c	1g	1ee
.	[2c	.	.	.
=70	=70	=70	=70	=70
0G	2c]	0d	0g	0dd
.	4B	.	.	.
.	4A	.	.	.
.	1B	.	.	.
=71	=71	=71	=71	=71
1r	1r	1r	1r	1r
1C	1c	1g	1e	1ee
=72	=72	=72	=72	=72
1.F	1.c	1.f	1.a	1ff
.	.	.	.	1cc
2F	2A	2f	2a	.
=73	=73	=73	=73	=73
1D	1F	1f	1a	1dd
1F	1A	1f	1a	1cc
=74	=74	=74	=74	=74
1C	1c	1e	1g	1cc
1r	[1B-	1f	[1b-	[1dd
=75	=75	=75	=75	=75
0r	2B-]	2f	2b-]	2dd]
.	2B-	1f	2b-	2dd
.	1F	.	1a	1cc
.	.	2f	.	.
=76	=76	=76	=76	=76
0r	1c	1e	2g	1cc
.	.	.	1a	.
.	1d	1f#	.	1a
.	.	.	[2d	.
=77	=77	=77	=77	=77
1r	1G	1g	2d]	1b
.	.	.	2.g	.
[1C	1c	2e	.	1cc
.	.	.	4f	.
.	.	2g	4e	.
.	.	.	4d	.
=78	=78	=78	=78	=78
1C]	1c	4g	2e	2r
.	.	4f	.	.
.	.	4e	2g	2cc
.	.	4d	.	.
[1F	[1A	1c	2a	4cc
.	.	.	.	4b-
.	.	.	4cc	4a
.	.	.	4b-	4g
=79	=79	=79	=79	=79
1F]	1A]	1c	4a	1f
.	.	.	4g	.
.	.	.	4f	.
.	.	.	4e	.
1BB-	1B-	1d	2d	1f
.	.	.	[2f	.
=80	=80	=80	=80	=80
1C	1G	0c	2f]	1cc
.	.	.	4e	.
.	.	.	4d	.
1C	1G	.	1e	1g
=81	=81	=81	=81	=81
0F	0F	0c	0f	0a
*	*	*	*	*-
!! Crucifixus
*Itenor	*Itenor	*Icalto	*Icant
!Tenor 2	!Tenor 1	!Altus	!Cantus
*clefGv2	*clefGv2	*clefG2	*clefG2
*k[b-]	*k[b-]	*k[b-]	*k[b-]
*F:ion	*F:ion	*F:ion	*F:ion
*M4/2	*M4/2	*M4/2	*M4/2
=82	=82	=82	=82
0c	0e	0g	0cc
=83	=83	=83	=83
1A	1c	1f	1cc
1G	1d	1g	1b
=84	=84	=84	=84
2F	2f	1a	1cc
1f	1a	.	.
.	.	1cc	1r
2e	2g	.	.
=85	=85	=85	=85
2d	2f	2b-	1r
2c	2e	2a	.
1B-	1d	2g	2r
.	.	4f	[2ff
.	.	4g	.
=86	=86	=86	=86
1A	1c	4a	2ff]
.	.	4b-	.
.	.	4cc	2ee
.	.	4a	.
2r	1r	2b-	2dd
2F	.	[2a	2cc
=87	=87	=87	=87
1G	2r	4a]	1b-
.	.	4g	.
.	2e	2g	.
1d	2.f	2.a	[1a
.	4e	4g	.
=88	=88	=88	=88
2r	2d	2f	0a]
2e	2c	2e	.
2.f	2.d	4d	.
.	.	4e	.
.	.	4f	.
4e	4e	4g	.
=89	=89	=89	=89
2d	2f	0a	2r
2c	2e	.	2ee
2.d	2r	.	2.ff
.	2d	.	.
4c	.	.	4ee
=90	=90	=90	=90
2B-	2d	2r	2dd
2A	2e	2a	2cc
1G	2g	2.b-	2.dd
.	4G	.	.
.	4A	4a	4cc
=91	=91	=91	=91
0r	4B-	2g	2b-
.	4c	.	.
.	2d	2f	2a
.	1B-	2g	1b-
.	.	[2f	.
=92	=92	=92	=92
2r	1c	4f]	0g
.	.	4e	.
1c	.	4e	.
.	.	4c	.
.	1G	2d	.
2B	.	[2g	.
=93	=93	=93	=93
2c	2r	2g]	1r
2A	2c	2f	.
2G	2B	2g	2r
[2F	2c	[2a	[2cc
=94	=94	=94	=94
2F]	1d	2a]	2cc]
2G	.	4g	2b
.	.	4f	.
2.A	4c	4e	1cc
.	4B-	4d	.
.	4A	2e	.
4B-	4G	.	.
=95	=95	=95	=95
2c	1F	1.f	1a
1d	.	.	.
.	1G	.	1g
[2c	.	2e	.
=96	=96	=96	=96
2c]	1G	1d	1g
2B	.	.	.
1c	2r	1e	1g
.	2c	.	.
=97	=97	=97	=97
0r	2.f	2.a	2r
.	.	.	2cc
.	4f	4a	.
.	2f	2a	2.ff
.	2d	2f	.
.	.	.	4ff
=98	=98	=98	=98
0r	2f	2a	2ff
.	2g	2b-	2dd
.	2.a	2.cc	2ff
.	.	.	2ee
.	4g	4b-	.
=99	=99	=99	=99
2r	2f	2a	2dd
2c	2e	2g	1cc
2d	1d	2f	.
[2f	.	2f	2b
=100	=100	=100	=100
2f]	1c	1g	1cc
2e	.	.	.
2.d	1r	2b-	1r
.	.	2a	.
4c	.	.	.
=101	=101	=101	=101
2B-	0r	4g	2r
.	.	4f	.
2A	.	1f	2f
1G	.	.	2g
.	.	2e	[2b-
=102	=102	=102	=102
1F	2r	0f	2b-]
.	2c	.	2a
1r	2d	.	4f
.	.	.	4g
.	[2f	.	4a
.	.	.	4f
=103	=103	=103	=103
0r	2f]	1c	1g
.	2e	.	.
.	2.d	2r	2f
.	.	2f	2a
.	4c	.	.
=104	=104	=104	=104
0r	2B-	2g	2b-
.	2A	2a	2cc
.	1G	2.b-	2dd
.	.	.	2ee
.	.	4g	.
=105	=105	=105	=105
2r	1F	4a	2.ff
.	.	4b-	.
2A	.	2cc	.
.	.	.	4ee
2B-	1r	2b-	2dd
2c	.	[2a	2cc
=106	=106	=106	=106
2d	1r	2a]	1b-
2e	.	2g	.
2.f	2r	1a	[1a
.	2f	.	.
4e	.	.	.
=107	=107	=107	=107
2d	2f	2r	1a]
2c	2e	2a	.
1B-	2f	2a	2r
.	2d	2g	2dd
=108	=108	=108	=108
1A	2e	2.a	2dd
.	4f	.	2cc
.	4e	4g	.
1r	4d	2f	2.dd
.	4c	.	.
.	4B-	[2g	.
.	4A	.	4cc
=109	=109	=109	=109
0r	2G	4g]	2b-
.	.	4f	.
.	2.A	4e	2.cc
.	.	4d	.
.	.	2e	.
.	4G	.	4b-
.	4F	[2f	4a
.	4E	.	4g
=110	=110	=110	=110
0r	4F	4f]	4a
.	4G	4e	4b-
.	2A	4e	1cc
.	.	8d	.
.	.	8c	.
.	1G	1d	.
.	.	.	2b
=111	=111	=111	=111
1c	2r	2e	1cc
.	2c	2g	.
2c	2e	2a	1r
2d	2f	2b-	.
=112	=112	=112	=112
2c	2.e	2.a	2r
2A	.	.	2cc
.	4e	4a	.
2c	2e	2a	2cc
2B-	2d	2g	2dd
=113	=113	=113	=113
1A	2e	1a	2cc
.	2f	.	2a
1r	2f	1r	2cc
.	2g	.	2b-
=114	=114	=114	=114
0r	2f	2r	2.a
.	2d	2f	.
.	.	.	4g
.	2f	2f	4a
.	.	.	4b-
.	2e	2g	2cc
=115	=115	=115	=115
1B-	1d	2f	1dd
.	.	2d	.
2B-	1r	2f	1r
2c	.	2e	.
=116	=116	=116	=116
2B-	2r	1d	1b-
2G	2g	.	.
2B-	2g	1r	2b-
2A	2f	.	2cc
=117	=117	=117	=117
4G	2g	0r	2b-
4A	.	.	.
4B-	2d	.	2g
4c	.	.	.
4d	1f	.	2b-
4e	.	.	.
[2f	.	.	2a
=118	=118	=118	=118
4f]	1c	2r	1g
4e	.	.	.
4e	.	2g	.
8d	.	.	.
8e	.	.	.
1f	1F	4a	2r
.	.	4b-	.
.	.	4cc	4f
.	.	4b-	4g
=119	=119	=119	=119
1F	2r	4a	4a
.	.	4g	4b-
.	1f	4f	4cc
.	.	4e	4a
1B-	.	4d	4b-
.	.	4e	4cc
.	[2d	2f	2dd
=120	=120	=120	=120
1G	2d]	1g	1b-
.	1e	.	.
1A	.	1c	2a
.	[2f	.	[2a
=121	=121	=121	=121
1.B-	2f]	1.d	2a]
.	2e	.	4g
.	.	.	4f
.	2d	.	2g
2B-	2d	2d	2g
=122	=122	=122	=122
1A	1c#	1e	1a
2r	2r	2r	2r
[2A	[2c#	[2e	[2a
=123	=123	=123	=123
2A]	2c#]	2e]	2a]
2d	2d	2f	2b-
1c	1e	1g	1cc
=124	=124	=124	=124
1F	1f	2f	2a
.	.	2c	2cc
1r	1r	4d	2b-
.	.	4e	.
.	.	4f	2a
.	.	4d	.
=125	=125	=125	=125
1r	1r	2e	2g
.	.	2f	1cc
2r	2r	1d	.
2G	2g	.	2b
=126	=126	=126	=126
4A	2f	1c	1cc
4B-	.	.	.
4c	2e	.	.
4A	.	.	.
2B-	2d	1r	1r
2c	[2f	.	.
=127	=127	=127	=127
2.A	4f]	2r	0r
.	4f	.	.
.	1f	2f	.
4B-	.	.	.
1G	.	4g	.
.	.	4a	.
.	2e	4b-	.
.	.	4g	.
=128	=128	=128	=128
1F	1f	1a	2r
.	.	.	2cc
1r	1r	1b-	4dd
.	.	.	4ee
.	.	.	4ff
.	.	.	4dd
=129	=129	=129	=129
0r	2r	1g	1ee
.	2c	.	.
.	4d	2f	2ff
.	4e	.	.
.	4f	2a	[2dd
.	4d	.	.
=130	=130	=130	=130
1r	2e	2g	4dd]
.	.	.	4cc
.	2f	1a	1cc
2r	1d	.	.
2G	.	4g	2b
.	.	4f	.
=131	=131	=131	=131
4A	2c	2.e	1cc
4B-	.	.	.
4c	2c	.	.
4A	.	4f	.
2B-	2d	1g	2r
2c	2e	.	2cc
=132	=132	=132	=132
0F	0f	0a	2cc
.	.	.	2cc
.	.	.	1cc
=133	=133	=133	=133
0c	0e	0g	0cc
*-	*-	*-	*-
!! Et in Spiritum
**kern	**kern	**kern	**kern	**kern
*Ibass	*Itenor	*Itenor	*Icalto	*Icant
!Bassus	!Tenor 2	!Tenor 1	!Altus	!Cantus
*clefF4	*clefGv2	*clefGv2	*clefG2	*clefG2
*k[b-]	*k[b-]	*k[b-]	*k[b-]	*k[b-]
*F:ion	*F:ion	*F:ion	*F:ion	*F:ion
*M3/2	*M3/2	*M3/2	*M3/2	*M3/2
=134	=134	=134	=134	=134
1F	1r	1f	1a	1cc
2G	2r	2d	2g	2b-
=135	=135	=135	=135	=135
2.A	1r	2.c	2.e	2.a
4A	.	4c	4e	4a
2F	2r	2c	2f	2a
=136	=136	=136	=136	=136
1B-	1r	2r	1f	1dd
.	.	2B-	.	.
2A	2r	2c	2f	2cc
=137	=137	=137	=137	=137
2.G	1r	2.d	2.g	2.b-
4G	.	4d	4g	4b-
2F	2r	2f	2c	2a
=138	=138	=138	=138	=138
2.C	2.c	2.e	2.g	2.cc
4C	4c	4e	4g	4cc
2F	2A	2f	2a	2cc
=139	=139	=139	=139	=139
2C	2c	2e	2g	2cc
1G	1d	2d	1g	1b
.	.	2g	.	.
=140	=140	=140	=140	=140
2C	2c	2e	2g	2cc
2r	2c	2g	2e	2cc
2r	2B	2g	2d	2dd
=141	=141	=141	=141	=141
1r	1c	1g	2c	1ee
.	.	.	1cc	.
2r	2A	2a	.	2cc
=142	=142	=142	=142	=142
1r	2.d	2f	2.a	2.ff
.	.	2d	.	.
.	4d	.	4a	4ff
2r	2c	2e	2a	2ee
=143	=143	=143	=143	=143
1r	1B-	1f	1b-	1dd
2r	2F	2f	2a	2cc
=144	=144	=144	=144	=144
1r	1G	1d	1g	1b
2r	2F	2f	2a	2cc
=145	=145	=145	=145	=145
1F	2r	2r	2r	1r
.	2c	2f	2a	.
2D	2d	2f	2b-	2r
=146	=146	=146	=146	=146
2C	2e	2g	2cc	1r
2C	2e	2g	2cc	.
2F	2c	2f	2a	2r
=147	=147	=147	=147	=147
2.BB-	2.f	2.d	2.b-	1r
4BB-	4f	4d	4b-	.
2C	2e	2c	2g	2r
=148	=148	=148	=148	=148
2.G	2.d	2.B	2.g	2.dd
4G	4d	4B	4g	4dd
2G	2d	2B	2g	2dd
=149	=149	=149	=149	=149
2C	2c	2c	2g	2ee
1G	1B	1d	1g	1dd
=150	=150	=150	=150	=150
2C	2c	2e	2g	2cc
2r	2r	2r	2r	2r
2F	2A	2f	2f	2cc
=151	=151	=151	=151	=151
2.BB-	2.B-	2.d	2.f	2.b-
4BB-	4B-	4d	4f	4b-
2F	2c	2c	2f	2a
=152	=152	=152	=152	=152
2BB-	2d	2B-	2f	2b-
1F	1c	1A	1f	1cc
=153	=153	=153	=153	=153
2BB-	2B-	2B-	2f	2dd
2B-	2B-	2r	2f	2dd
2A	2c	2r	2f	2cc
=154	=154	=154	=154	=154
1G	1d	2r	1g	1b
.	.	2d	.	.
2C	2e	2c	2g	2cc
=155	=155	=155	=155	=155
1G	2d	1B-	1g	1.dd
.	2.d	.	.	.
2F#	.	2A	2a	.
.	4c	.	.	.
=156	=156	=156	=156	=156
2.G	4B-	2G	2.b-	1dd
.	4A	.	.	.
.	1G	2B-	.	.
4F	.	.	4a	.
2E	.	[2c	2g	[2cc
=157	=157	=157	=157	=157
2F	2A	2c]	2.f	2cc]
1C	1G	1c	.	1cc
.	.	.	8e	.
.	.	.	8d	.
.	.	.	2e	.
!! Et unam sanctam
*Ibass	*Itenor	*Itenor	*Icalto	*Icant
!Bassus	!Tenor 2	!Tenor 1	!Altus	!Cantus
*clefF4	*clefGv2	*clefGv2	*clefG2	*clefG2
*k[b-]	*k[b-]	*k[b-]	*k[b-]	*k[b-]
*F:ion	*F:ion	*F:ion	*F:ion	*F:ion
*M4/2	*M4/2	*M4/2	*M4/2	*M4/2
=158	=158	=158	=158	=158
0F	1F	1c	1f	1a
.	2r	2r	2r	2r
.	2c	2F	2f	2a
=159	=159	=159	=159	=159
0r	2c	2F	2f	2a
.	2c	2F	2f	2a
.	1d	1B-	1f	1b-
=160	=160	=160	=160	=160
1r	2c	2A	2f	2cc
.	2f	2B-	2f	2dd
1C	2f	2.G	2.g	2.cc
.	4e	.	.	.
.	4d	4G	4g	4cc
=161	=161	=161	=161	=161
2C	2e	2c	2g	1cc
2C	2e	2c	2g	.
2.F	2f	2c	2.a	2r
.	2F	2A	.	2cc
4F	.	.	4a	.
=162	=162	=162	=162	=162
2E	2G	2.c	2g	2cc
2F	2F	.	2a	2cc
.	.	4c	.	.
2D	2A	1d	2f	2.ff
2D	2B	.	2d	.
.	.	.	.	4ff
=163	=163	=163	=163	=163
2C	2c	0r	2g	2ee
2c	2F	.	2a	2ff
2c	2G	.	2.g	2dd
2B	2G	.	.	2dd
.	.	.	4f	.
=164	=164	=164	=164	=164
1c	1g	2r	1e	1cc
.	.	2c	.	.
1F	1r	2c	1f	1a
.	.	2c	.	.
=165	=165	=165	=165	=165
2F	2r	2.f	1r	2a
2F	2f	.	.	2a
.	.	4e	.	.
2B-	2f	4d	2r	1dd
.	.	4c	.	.
2B-	2d	2B-	2f	.
=166	=166	=166	=166	=166
2A	4f	2F	2f	2cc
.	4e	.	.	.
2B-	4d	1f	2f	1dd
.	4c	.	.	.
1G	1B-	.	2b-	.
.	.	2e	[2b-	2ee
=167	=167	=167	=167	=167
1F	2r	2d	2b-]	2.ff
.	2c	2c	2a	.
.	.	.	.	4ee
1r	2d	1B-	1b-	1dd
.	[2f	.	.	.
=168	=168	=168	=168	=168
1r	2f]	1c	1g	[0cc
.	2e	.	.	.
2r	1f	1F	2f	.
[2F	.	.	[2a	.
=169	=169	=169	=169	=169
2F]	2.c	0r	2a]	1cc]
2C	.	.	2e	.
.	4B-	.	.	.
2D	2A	.	2f	2r
2E	2G	.	2g	[2cc
=170	=170	=170	=170	=170
2.F	2c	2r	2.a	2cc]
.	2c	1c	.	2f
4F	.	.	4a	.
2F	1r	.	2a	2cc
2E	.	2G	2g	2cc
=171	=171	=171	=171	=171
1D	1r	2A	1.f	1dd
.	.	2B	.	.
1C	2r	2.c	.	2g
.	[2g	.	4e	2cc
.	.	4c	4d	.
=172	=172	=172	=172	=172
0r	2g]	2c	2e	2cc
.	2d	2B-	2.f	2.dd
.	2e	1A	.	.
.	.	.	4e	4cc
.	2f	.	2c	[2cc
=173	=173	=173	=173	=173
1r	1.g	1G	1d	2cc]
.	.	.	.	2b
2r	.	1c	2.e	2cc
[2c	2g	.	.	[2cc
.	.	.	4f	.
=174	=174	=174	=174	=174
2c]	2g	0r	2e	2cc]
2F	2f	.	1d	2a
2G	1e	.	.	2b-
2A	.	.	2c#	2a
=175	=175	=175	=175	=175
2.B-	2d	2r	1d	1f
.	1d	1f	.	.
4B-	.	.	.	.
2B-	.	.	2.f	1r
2A	2c	2c	.	.
.	.	.	4f	.
=176	=176	=176	=176	=176
1G	1B-	2d	1g	1r
.	.	2e	.	.
1F	1c	2.f	2a	2r
.	.	.	2a	[2cc
.	.	4f	.	.
=177	=177	=177	=177	=177
0r	2r	2f	2a	2cc]
.	2c	2e	1cc	2g
.	2f	1d	.	2a
.	[2f	.	2b-	2b-
=178	=178	=178	=178	=178
0r	2f]	1c	2a	2.cc
.	2e	.	2g	.
.	.	.	.	4cc
.	2c	2A	2a	2cc
.	2d	2B-	[2g	2b-
=179	=179	=179	=179	=179
0r	2e	0c	2g]	1a
.	2f	.	1f	.
.	2g	.	.	1g
.	[2c	.	2e	.
=180	=180	=180	=180	=180
0F	2c]	1A	1f	0cc
.	2c	.	.	.
.	2.f	1A	1c	.
.	4e	.	.	.
=181	=181	=181	=181	=181
1BB-	4d	1B-	1f	1dd
.	4c	.	.	.
.	2B-	.	.	.
1F	2c	1A	[1f	1cc
.	2c	.	.	.
=182	=182	=182	=182	=182
1r	4d	0r	2f]	2.a
.	4e	.	.	.
.	4f	.	2f	.
.	4d	.	.	4b-
2r	2e	.	2g	1cc
2F	2f	.	2a	.
=183	=183	=183	=183	=183
4G	1d	0r	4b-	1r
4A	.	.	4a	.
4B-	.	.	2.g	.
4G	.	.	.	.
2A	2c	.	.	2r
.	.	.	4f	.
2B-	2d	.	[2f	2f
=184	=184	=184	=184	=184
2G	1B-	1r	2f]	4g
.	.	.	.	4a
2G	.	.	2e	4b-
.	.	.	.	4g
1F	2c	2r	1f	2a
.	2A	2c	.	2cc
=185	=185	=185	=185	=185
0r	2G	4d	1r	2b-
.	.	4e	.	.
.	2F	4f	.	2a
.	.	4d	.	.
.	2c	2e	2r	2g
.	2F	2f	2c	[2cc
=186	=186	=186	=186	=186
1r	1G	2d	1g	2cc]
.	.	2d	.	2b
[1C	1r	2e	4g	[1cc
.	.	.	4f	.
.	.	2c	4e	.
.	.	.	4d	.
=187	=187	=187	=187	=187
1C]	1c	1g	2e	1cc]
.	.	.	2e	.
1G	1B	2g	1d	2r
.	.	2d	.	[2g
=188	=188	=188	=188	=188
1C	2c	4e	1g	2g]
.	.	4f	.	.
.	2c	4g	.	2.cc
.	.	4e	.	.
2r	1d	2f	1r	.
.	.	.	.	8b
.	.	.	.	8a
2G	.	2g	.	2b
=189	=189	=189	=189	=189
4A	1c	2e	1r	2cc
4B-	.	.	.	.
4c	.	2e	.	2cc
4A	.	.	.	.
2B-	1r	1d	2r	4dd
.	.	.	.	4ee
2d	.	.	2f	4ff
.	.	.	.	4dd
=190	=190	=190	=190	=190
2c	2r	0r	4g	2ee
.	.	.	4a	.
2B-	2d	.	4b-	1dd
.	.	.	4g	.
1c	1e	.	2a	.
.	.	.	[2g	[2cc
=191	=191	=191	=191	=191
1d	1f	0r	4g]	2cc]
.	.	.	4f	.
.	.	.	1f	2b
2c	[1g	.	.	[1cc
[2c	.	.	4e	.
.	.	.	4d	.
=192	=192	=192	=192	=192
4c]	2g]	2.c	1e	1cc]
4B-	.	.	.	.
4A	2c	.	.	.
4G	.	4B-	.	.
2G	[1c	2A	2f	2r
2E	.	2G	2g	[2cc
=193	=193	=193	=193	=193
1F	1c]	4F	2a	4cc]
.	.	4G	.	4b-
.	.	4A	2.f	2a
.	.	4B-	.	.
1C	2r	1c	.	1g
.	.	.	8e	.
.	.	.	8d	.
.	2c	.	2e	.
=194	=194	=194	=194	=194
2r	4c	1F	[0f	1a
.	4B-	.	.	.
2.F	4A	.	.	.
.	4G	.	.	.
.	1F	2.f	.	1a
4E	.	.	.	.
4D	.	.	.	.
4C	.	4e	.	.
=195	=195	=195	=195	=195
2BB-	2.f	2d	0f]	2b-
2AA	.	2c	.	2cc
.	4e	.	.	.
1BB-	4d	1B-	.	1dd
.	4c	.	.	.
.	[2B-	.	.	.
=196	=196	=196	=196	=196
[0F	2B-]	[0c	[0f	[0cc
.	4A	.	.	.
.	4G	.	.	.
.	1A	.	.	.
=197	=197	=197	=197	=197
0F]	0A	0c]	0f]	0cc]
==	==	==	==	==
*-	*-	*-	*-	*-
!!!CDT: 1525/^1526/-1594/2/2
!!!OCY: Italia
!!!AGN: Mass (Parody)
!!!AST: renaissance, vocal
!!!ASW: Motet (Morales)
!!!PWK: Masses, Book 8
!!!RNB: Cadence finals: C
!!!YOR: Le Opere Complete, v. 24, p. 227
!!!YOO: Rome, Italy: Fratelli Scalera
!!!END: 1992//
!!!EED: John Miller
!!!YEC: Copyright 2000, John Miller
!!!YEN: United States of America
!!!YEM: Rights to all derivative electronic formats reserved.
!!!YEM: Refer to licensing agreement for further details.
!!!YEM: This file must be accompanied by the licensing agreement.
!!!YEM: A copy of the licensing agreement may be found at http://www.music-cog.ohio-state.edu/HumdrumDatabases/Palestrina/license.txt
!!!EMD: converted to Humdrum by Bret Aarden
